X:824
M:C
L:1/8
K:C
|:f|e2 d>c d>ed>B|c>de>d e/d/c/B/ c>G|A/A/A a>g e2 d>c|A<cG<c E<DD:|
|:f|e<g g>a g>ag>d|e<a a>b a>ba>g|e<g d>e c>de>c|A<a g>e e<dd:|
|:g|e2 d>^c d<e a2|g<e e>d c<A A>c|GAcd e2 d<c|A<cG<c E<D D>g|
e2 d>c d<e a2|g<e e>d c<A Ae/g/|a>eg>d e2 d<c|A<cG<c E<DD||

